packages/tokens/icons/flexible/size24Px.svg

<svg viewBox="0 0 24 24" fill="none" xmlns="http://www.w3.org/2000/svg" width="1em" height="1em"><path fill-rule="evenodd" clip-rule="evenodd" d="M12.3536 3.14645C12.1583 2.95118 11.8417 2.95118 11.6464 3.14645L8.81802 5.97487C8.62276 6.17014 8.62276 6.48672 8.81802 6.68198C9.01328 6.87724 9.32986 6.87724 9.52513 6.68198L11.5 4.70711L11.5 11C11.5 11.2761 11.7239 11.5 12 11.5C12.2761 11.5 12.5 11.2761 12.5 11L12.5 4.70711L14.4749 6.68198C14.6701 6.87724 14.9867 6.87724 15.182 6.68198C15.3772 6.48672 15.3772 6.17014 15.182 5.97487L12.3536 3.14645ZM16 12.5001C14.067 12.5001 12.5 14.0671 12.5 16.0001L12.5 20.5001C12.5 20.7762 12.2761 21.0001 12 21.0001C11.7239 21.0001 11.5 20.7762 11.5 20.5001L11.5 16.0001C11.5 14.0671 9.933 12.5001 8 12.5001H4.70711L6.68198 14.4749C6.87724 14.6702 6.87724 14.9868 6.68198 15.182C6.48672 15.3773 6.17014 15.3773 5.97487 15.182L3.14645 12.3536C2.95118 12.1583 2.95118 11.8418 3.14645 11.6465L5.97487 8.81808C6.17014 8.62282 6.48672 8.62282 6.68198 8.81808C6.87724 9.01334 6.87724 9.32992 6.68198 9.52518L4.70711 11.5001H8C9.74147 11.5001 11.2519 12.4893 12 13.9365C12.7481 12.4893 14.2585 11.5001 16 11.5001H19.2929L17.318 9.52518C17.1228 9.32992 17.1228 9.01334 17.318 8.81808C17.5133 8.62282 17.8299 8.62282 18.0251 8.81808L20.8536 11.6465C21.0488 11.8418 21.0488 12.1583 20.8536 12.3536L18.0251 15.182C17.8299 15.3773 17.5133 15.3773 17.318 15.182C17.1228 14.9868 17.1228 14.6702 17.318 14.4749L19.2929 12.5001H16Z" fill="currentColor"/></svg>

<svg xmlns="http://www.w3.org/2000/svg" fill="none" viewBox="0 0 24 24" width="1em" height="1em"><path fill="currentColor" fill-rule="evenodd" d="M12.354 3.146a.5.5 0 0 0-.708 0L8.818 5.975a.5.5 0 0 0 .707.707L11.5 4.707V11a.5.5 0 0 0 1 0V4.707l1.975 1.975a.5.5 0 1 0 .707-.707l-2.828-2.829ZM16 12.5a3.5 3.5 0 0 0-3.5 3.5v4.5a.5.5 0 0 1-1 0V16A3.5 3.5 0 0 0 8 12.5H4.707l1.975 1.975a.5.5 0 1 1-.707.707l-2.829-2.828a.5.5 0 0 1 0-.707l2.829-2.829a.5.5 0 0 1 .707.707L4.707 11.5H8a4.5 4.5 0 0 1 4 2.437 4.5 4.5 0 0 1 4-2.437h3.293l-1.975-1.975a.5.5 0 0 1 .707-.707l2.829 2.829a.5.5 0 0 1 0 .707l-2.829 2.828a.5.5 0 1 1-.707-.707l1.975-1.975H16Z" clip-rule="evenodd"/></svg>
